Source/WebInspectorUI/UserInterface/Images/gtk/DockRight.svg

<?xml version="1.0" encoding="UTF-8" standalone="no"?>
<!-- Created with Inkscape (http://www.inkscape.org/) -->

<svg
   xmlns:dc="http://purl.org/dc/elements/1.1/"
   xmlns:cc="http://creativecommons.org/ns#"
   xmlns:rdf="http://www.w3.org/1999/02/22-rdf-syntax-ns#"
   xmlns:svg="http://www.w3.org/2000/svg"
   xmlns="http://www.w3.org/2000/svg"
   version="1.1"
   width="16"
   height="14"
   id="svg3020">
  <defs
     id="defs3022" />
  <metadata
     id="metadata3025">
    <rdf:RDF>
      <cc:Work
         rdf:about="">
        <dc:format>image/svg+xml</dc:format>
        <dc:type
           rdf:resource="http://purl.org/dc/dcmitype/StillImage" />
        <dc:title></dc:title>
      </cc:Work>
    </rdf:RDF>
  </metadata>
  <g
     transform="translate(0,-2)"
     id="layer1">
    <path
       d="M 2.28125,1 C 1.5934111,1.0555903 0.99702097,1.5950559 1,2.1875 l 0,9.625 c -0.00205,0.03747 -0.00205,0.05628 0,0.09375 L 1,13 l 1.1875,0 0.21875,0 11.1875,0 0.125,0 L 15,13 15,12.03125 c 0.0082,-0.07477 0.0082,-0.143979 0,-0.21875 l 0,-9.625 C 14.999927,1.5592677 14.326365,1.0000628 13.59375,1 L 2.40625,1 C 2.362556,0.99824 2.3249437,0.99824 2.28125,1 z M 4,3 l 0.75,0 0.09375,0 3.1875,0 0.0625,0 c 0.017326,-5.328e-4 0.045174,-5.328e-4 0.0625,0 L 8.21875,3 9,3 9,3.65625 C 9.00211,3.6908655 9.00211,3.715385 9,3.75 9.010826,3.8274825 9.010826,3.922518 9,4 L 9,7.15625 9,7.25 9,8 8.34375,8 8.3125,8 c -0.7437836,0 -1,-0.093119 -1,-0.84375 l 0,-1.28125 -1.875,1.875 C 5.3051426,7.8801481 5.122063,7.980046 4.9375,8 4.2383693,8.1148836 3.7002494,7.045289 4.21875,6.5625 L 6.125,4.65625 l -1.28125,0 C 4.1891106,4.65625 4,4.3248999 4,3.6875 L 4,3 z m 6,0 3,0 0,8 -3,0 0,-8 z"
       transform="translate(0,2)"
       id="rect13039-7"
       style="font-size:medium;font-style:normal;font-variant:normal;font-weight:normal;font-stretch:normal;text-indent:0;text-align:start;text-decoration:none;line-height:normal;letter-spacing:normal;word-spacing:normal;text-transform:none;direction:ltr;block-progression:tb;writing-mode:lr-tb;text-anchor:start;baseline-shift:baseline;color:#000000;fill-opacity:1;stroke:none;stroke-width:2;marker:none;visibility:visible;display:inline;overflow:visible;enable-background:new;font-family:Sans;-inkscape-font-specification:Sans" />
  </g>
</svg>

<?xml version="1.0" encoding="UTF-8" standalone="no"?>
<!-- Licensed under the Creative Commons Attribution-Share Alike 3.0 United States License (http://creativecommons.org/licenses/by-sa/3.0/) -->
<svg xmlns="http://www.w3.org/2000/svg" version="1.1" viewBox="0 0 16 14">
 <g transform="translate(0,-2)">
  <path style="block-progression:tb;text-indent:0;color:#000000;enable-background:new;text-transform:none" d="m2.2812 1c-0.6878 0.0556-1.2842 0.5951-1.2812 1.1875v9.625c-0.00205 0.03747-0.00205 0.05628 0 0.09375v1.094h1.1875 0.21875 11.188 0.125 1.281v-0.969c0.0082-0.07477 0.0082-0.14398 0-0.21875v-9.625c0-0.6277-0.674-1.1869-1.406-1.187h-11.188c-0.0434-0.00176-0.0811-0.00176-0.1248 0zm1.7188 2h0.75 0.09375 3.1875 0.0625c0.017326-0.0005328 0.045174-0.0005328 0.0625 0h0.0626 0.7812v0.6562c0.0021 0.0347 0.0021 0.0592 0 0.0938 0.0108 0.0775 0.0108 0.1725 0 0.25v3.1562 0.0938 0.75h-0.6562-0.0313c-0.74378 0-1-0.093119-1-0.84375v-1.2812l-1.875 1.875c-0.1324 0.1301-0.3154 0.23-0.5 0.25-0.6991 0.1149-1.2373-0.9547-0.7187-1.4375l1.9062-1.9063h-1.2812c-0.6547 0-0.8438-0.3313-0.8438-0.9687v-0.6875zm6 0h3v8h-3v-8z" transform="translate(0,2)"/>
 </g>
</svg>
